X:4
T:Hanter dro
R:hanter dro
O:Bretagne
Z:id:hn-hanterdro-4
M:3/4
L:1/8
K:Bm
|: fe/d/ cf fe | fe/d/ cf fe | fe/d/ cf f2 :|
|: Bc/d/ ec f2 | fe/d/ cd BA | Bc/d/ ec f2 | fe/d/ cd B2 :|

